X: 02092
T: O'DONNELL'S FLING
C: Bob McQuillen Feb.'76
B: Bob's Note Book 1&2 #92
%R: reel
Z: 2019 John Chambers <jc:trillian.mit.edu>
M: C
L: 1/8
K: G	% and Em
de \
| g2gd edBd | egfe dcBA | g2gd edBd | egdB A2de |
| g2gd edBd | egfe dcBA | g2gd edBd | BdAd G2 :|
|: GE \
| B,2E2 E2GA | BABG AGGE | B,2E2 E2GA | BABG A2GE |
| B,2E2 E2GA | BABG AGGA | B2e2 BAGF | G2E2 E2 :|
%%begintext align
%% For Vince O'Donnell
%%endtext

%%sep 1 1 500

%%sep 1 1 500

